Sources/FrostedUI/Resources/Icons.xcassets/heart20.imageset/heart-20.svg

<svg width="20" height="20" viewBox="0 0 20 20" fill="none" xmlns="http://www.w3.org/2000/svg" data-fui-icon="true">
  <path
    d="M13.6367 2.25C16.4974 2.25021 18.75 4.73446 18.75 7.66699C18.7499 9.04451 18.1623 10.3594 17.3682 11.5176C16.5697 12.682 15.5202 13.7497 14.4941 14.6475C13.4648 15.5481 12.4386 16.2966 11.6719 16.8184C11.2879 17.0796 10.9671 17.2856 10.7412 17.4268C10.6283 17.4973 10.5384 17.5516 10.4766 17.5889C10.4458 17.6074 10.4219 17.622 10.4053 17.6318L10.3809 17.6465L10.3789 17.6475H10.3779C10.1437 17.7841 9.85393 17.7839 9.62012 17.6465H9.61914V17.6455L9.61133 17.6416C9.6068 17.6389 9.60079 17.6347 9.59277 17.6299C9.57611 17.6199 9.55141 17.6057 9.52051 17.5869C9.45877 17.5494 9.36951 17.4948 9.25684 17.4238C9.03103 17.2817 8.7101 17.0744 8.32617 16.8115C7.55971 16.2868 6.53387 15.5357 5.50488 14.6328C4.47918 13.7328 3.43001 12.664 2.63184 11.502C1.83832 10.3467 1.25009 9.03598 1.25 7.66699C1.25 4.73446 3.5026 2.25021 6.36328 2.25C7.79306 2.25 9.08219 2.85838 10 3.85449C10.9178 2.85838 12.2069 2.25 13.6367 2.25ZM13.6367 3.75C12.3883 3.75 11.2805 4.41472 10.6445 5.4834L10.5889 5.56445C10.4478 5.74336 10.2314 5.84961 10 5.84961C9.73558 5.84961 9.49068 5.71064 9.35547 5.4834C8.71952 4.41472 7.61171 3.75 6.36328 3.75C4.42428 3.75021 2.75 5.46645 2.75 7.66699C2.75009 8.61159 3.16195 9.62408 3.86816 10.6523C4.56996 11.6741 5.52086 12.65 6.49512 13.5049C7.46603 14.3568 8.44035 15.0711 9.17383 15.5732C9.50933 15.8029 9.79298 15.9874 10.001 16.1191C10.2089 15.9884 10.4929 15.8063 10.8281 15.5781C11.5614 15.0791 12.5352 14.3679 13.5059 13.5186C14.4797 12.6664 15.4304 11.6929 16.1318 10.6699C16.8375 9.64082 17.2499 8.62258 17.25 7.66699C17.25 5.46645 15.5757 3.75021 13.6367 3.75Z"
    fill="currentColor"
  />
</svg>

<svg xmlns="http://www.w3.org/2000/svg" width="20" height="20" fill="none" data-fui-icon="true" viewBox="0 0 20 20"><path fill="currentColor" d="M13.637 2.25c2.86 0 5.113 2.484 5.113 5.417 0 1.378-.588 2.692-1.382 3.85-.798 1.165-1.848 2.233-2.874 3.13a30 30 0 0 1-4.017 2.942l-.072.043-.024.014-.002.002h-.001a.75.75 0 0 1-.758-.002l-.009-.004-.018-.012-.072-.043-.264-.163c-.226-.142-.547-.35-.93-.613a30 30 0 0 1-2.822-2.178c-1.026-.9-2.075-1.969-2.873-3.131-.794-1.155-1.382-2.466-1.382-3.835 0-2.933 2.253-5.417 5.113-5.417A4.92 4.92 0 0 1 10 3.854a4.92 4.92 0 0 1 3.637-1.604m0 1.5c-1.249 0-2.357.665-2.992 1.733l-.056.081a.75.75 0 0 1-1.234-.08C8.72 4.413 7.612 3.75 6.363 3.75c-1.939 0-3.613 1.716-3.613 3.917 0 .945.412 1.957 1.118 2.985.702 1.022 1.653 1.998 2.627 2.853a29 29 0 0 0 3.506 2.614 28.412 28.412 0 0 0 3.505-2.6c.974-.853 1.924-1.826 2.626-2.85.705-1.028 1.118-2.046 1.118-3.002 0-2.2-1.674-3.917-3.613-3.917"/></svg>
